components/ui-node-icon/src/removeDuplicateRows/removeDuplicateRows.large.svg

<svg width="32" height="32" viewBox="0 0 32 32" fill="none" xmlns="http://www.w3.org/2000/svg">
  <path fill-rule="evenodd" clip-rule="evenodd" d="M10.2 12H6C4.34315 12 3 13.3431 3 15V19H11.3378C10.487 17.5291 10 15.8214 10 14C10 13.3151 10.0689 12.6462 10.2 12ZM20 24C21.0452 24 22.053 23.8396 23 23.5422V24C23 25.6569 21.6569 27 20 27H6C4.34315 27 3 25.6569 3 24V20H11.9993C13.8237 22.4289 16.7284 24 20 24Z" fill="var(--tbl--colors--icons--clean--secondary)"/>
  <path fill-rule="evenodd" clip-rule="evenodd" d="M20 23C24.9706 23 29 18.9706 29 14C29 9.02944 24.9706 5 20 5C15.0294 5 11 9.02944 11 14C11 18.9706 15.0294 23 20 23ZM18.2071 10.7929C17.8166 10.4024 17.1834 10.4024 16.7929 10.7929C16.4024 11.1834 16.4024 11.8166 16.7929 12.2071L18.5858 14L16.7929 15.7929C16.4024 16.1834 16.4024 16.8166 16.7929 17.2071C17.1834 17.5976 17.8166 17.5976 18.2071 17.2071L20 15.4142L21.7929 17.2071C22.1834 17.5976 22.8166 17.5976 23.2071 17.2071C23.5976 16.8166 23.5976 16.1834 23.2071 15.7929L21.4142 14L23.2071 12.2071C23.5976 11.8166 23.5976 11.1834 23.2071 10.7929C22.8166 10.4024 22.1834 10.4024 21.7929 10.7929L20 12.5858L18.2071 10.7929Z" fill="var(--tbl--colors--icons--clean--primary)"/>
</svg>

<svg xmlns="http://www.w3.org/2000/svg" width="32" height="32" fill="none" viewBox="0 0 32 32">
  <path fill="var(--tbl--colors--icons--clean--secondary)" fill-rule="evenodd" d="M10.2 12H6a3 3 0 0 0-3 3v4h8.338A9.955 9.955 0 0 1 10 14c0-.685.069-1.354.2-2ZM20 24c1.045 0 2.053-.16 3-.458V24a3 3 0 0 1-3 3H6a3 3 0 0 1-3-3v-4h9a9.985 9.985 0 0 0 8 4Z" clip-rule="evenodd"/>
  <path fill="var(--tbl--colors--icons--clean--primary)" fill-rule="evenodd" d="M20 23a9 9 0 1 0 0-18 9 9 0 0 0 0 18Zm-1.793-12.207a1 1 0 0 0-1.414 1.414L18.586 14l-1.793 1.793a1 1 0 0 0 1.414 1.414L20 15.414l1.793 1.793a1 1 0 0 0 1.414-1.414L21.414 14l1.793-1.793a1 1 0 0 0-1.414-1.414L20 12.586l-1.793-1.793Z" clip-rule="evenodd"/>
</svg>
